resources/vectors/yandex_trains.svg

<svg xmlns="http://www.w3.org/2000/svg" viewBox="0 0 192 192"><path fill="#56595b" d="M144.18 162.74h-15.32l5.36 7.66H57.78l5.36-7.66H47.82L30.11 184h16.13l4.27-5.75H96v-3.92 3.92h45.49l4.26 5.75h16.14l-17.71-21.26z"/><path fill="#ba6561" d="M30.11 140.29v2.87a3 3 0 0 0 0 .43c.66 3 5.94 10.71 7.8 13.17 2.09 2.75 8 7.23 8 7.23h100.18s5.91-4.48 8-7.23c1.86-2.46 7.14-10.15 7.8-13.17a3 3 0 0 0 0-.43v-2.87Z"/><path fill="#ff837d" d="M161.89 24.11s-3.3-6.47-25.89-12.21C127.15 9.63 96 8 96 8s-31.15 1.63-40 3.9c-22.59 5.74-25.89 12.21-25.89 12.21v116.18h131.78Z"/><circle cx="56.2" cy="118.33" r="9.96" fill="#fdfdfd"/><circle cx="135.85" cy="118.33" r="9.96" fill="#fdfdfd"/><path fill="#fdfdfd" d="M92.87 42.06 77.79 25.4s-11.63-.58-32.31 4.74c-4.84 1.24-7.47 6-7.47 6v38.38h54.86ZM104.75 19.8h-8.64v5.33L96 19.8h-8.63s-1.92 0-1.34 2.58c.71 3.24 8.77 9.15 10 10v.11l.08-.05.07.05v-.11c1.18-.85 9.24-6.76 10-10 .48-2.58-1.43-2.58-1.43-2.58ZM99.24 42.06l15.08-16.66s11.63-.58 32.31 4.74c4.84 1.24 7.47 6 7.47 6v38.38H99.24Z"/></svg>

<svg xmlns="http://www.w3.org/2000/svg" viewBox="0 0 192 192"><polygon points="144.18 162.74 128.86 162.74 134.22 170.4 96 170.4 96 170.4 57.78 170.4 63.14 162.74 47.82 162.74 30.11 184 46.24 184 50.51 178.25 96 178.25 96 174.33 96 178.25 141.49 178.25 145.75 184 161.89 184 144.18 162.74" style="fill:#56595b"/><path d="M30.11,140.29v2.87a3,3,0,0,0,0,.43c.66,3,5.94,10.71,7.8,13.17,2.09,2.75,8,7.23,8,7.23H146.09s5.91-4.48,8-7.23c1.86-2.46,7.14-10.15,7.8-13.17a3,3,0,0,0,0-.43v-2.87Z" style="fill:#ba6561"/><path d="M161.89,24.11S158.59,17.64,136,11.9C127.15,9.63,96,8,96,8S64.85,9.63,56,11.9C33.41,17.64,30.11,24.11,30.11,24.11V140.29H161.89Z" style="fill:#ff837d"/><circle cx="56.2" cy="118.33" r="9.96" style="fill:#fdfdfd"/><circle cx="135.85" cy="118.33" r="9.96" style="fill:#fdfdfd"/><path d="M92.87,42.06,77.79,25.4s-11.63-.58-32.31,4.74c-4.84,1.24-7.47,6-7.47,6V74.52H92.87Z" style="fill:#fdfdfd"/><path d="M104.75,19.8H96l.06,5.33L96,19.8H87.37s-1.92,0-1.34,2.58c.71,3.24,8.77,9.15,10,10v.11l.08-.05.07.05v-.11c1.18-.85,9.24-6.76,10-10C106.66,19.8,104.75,19.8,104.75,19.8Z" style="fill:#fdfdfd"/><path d="M99.24,42.06,114.32,25.4s11.63-.58,32.31,4.74c4.84,1.24,7.47,6,7.47,6V74.52H99.24Z" style="fill:#fdfdfd"/></svg>
